X: 281
T:Sgiandubh
% Nottingham Music Database
S:Ms L Dolman, via EF
M:6/8
K:Em
G/2F/2|"Em"E2e e2B|"G"dBd "D"AFD|"Em"E2e e2B|"C"efg "Bm7"f2e|
"Em"E2e e2B|"G"dBd "D"AFD|"G"G3 "B7"A3|"Em"BGE E2
:: A|"Em"B2E EFG|"D"FED AFD|"Em"B2E EFG|"G"BcA "Em"BGE|
"Em"B2E EFG|"D"FED AFD|"G"GAB "D"AGF|"Em"BGE E2A||
"Em"B2E EFG|"D"FED AFD|"Em"B2E EFG|"G"BcA "Em"BGE|
"G"BdB "D"AdG|"D"FAd AFD|"G"GAB "D"FGA|"Em"BGE E2:|


